X:204
T:O'Keefe's
R:slide
M:12/8
L:1/8
K:Ador
|:A2e e2d BAB d2B|A2e e2d B2A GAB|A2e e2d BAB d3|BAB d2e B2A A3:|
|:e2a a2b a2g e2d|efg a2b a2g e2f|g3 gfe dBA G3|BAB d2e B2A A3:|

